local/share/icons/dracula-icons-main/scalable/mimetypes/application-x-trash.svg

<?xml version="1.0" encoding="UTF-8"?>
<svg xmlns="http://www.w3.org/2000/svg" xmlns:xlink="http://www.w3.org/1999/xlink" width="64" height="64" viewBox="0 0 64 64">
<defs>
<filter id="filter-remove-color" x="0%" y="0%" width="100%" height="100%">
<feColorMatrix color-interpolation-filters="sRGB" values="0 0 0 0 1 0 0 0 0 1 0 0 0 0 1 0 0 0 1 0" />
</filter>
<mask id="mask-0">
<g filter="url(#filter-remove-color)">
<rect x="-6.4" y="-6.4" width="76.8" height="76.8" fill="rgb(0%, 0%, 0%)" fill-opacity="0.1"/>
</g>
</mask>
<linearGradient id="linear-pattern-0" gradientUnits="userSpaceOnUse" x1="49.570999" y1="52.714001" x2="51.714001" y2="54.856998" gradientTransform="matrix(0.617345, 0, 0, 0.617345, -18.167916, -19.050025)">
<stop offset="0" stop-color="rgb(0%, 0%, 0%)" stop-opacity="1"/>
<stop offset="1" stop-color="rgb(0%, 0%, 0%)" stop-opacity="0"/>
</linearGradient>
<clipPath id="clip-0">
<rect x="0" y="0" width="17" height="17"/>
</clipPath>
<g id="source-12460" clip-path="url(#clip-0)">
<path fill-rule="evenodd" fill="url(#linear-pattern-0)" d="M 14.816406 12.171875 L 11.113281 15.875 L 13.492188 15.875 C 14.226562 15.875 14.816406 15.285156 14.816406 14.550781 Z M 14.816406 12.171875 "/>
</g>
</defs>
<path fill-rule="nonzero" fill="rgb(95.686275%, 95.686275%, 95.686275%)" fill-opacity="1" d="M 3.441406 1.058594 L 13.492188 1.058594 C 14.222656 1.058594 14.816406 1.652344 14.816406 2.382812 L 14.816406 14.550781 C 14.816406 15.28125 14.222656 15.875 13.492188 15.875 L 3.441406 15.875 C 2.707031 15.875 2.117188 15.28125 2.117188 14.550781 L 2.117188 2.382812 C 2.117188 1.652344 2.707031 1.058594 3.441406 1.058594 Z M 3.441406 1.058594 "/>
<g mask="url(#mask-0)">
<use xlink:href="#source-12460"/>
</g>
<path fill-rule="evenodd" fill="rgb(54.117647%, 57.254902%, 63.529412%)" fill-opacity="1" d="M 9.574219 5.292969 L 7.878906 5.296875 C 8.066406 5.410156 8.308594 5.671875 8.511719 5.972656 C 8.734375 6.304688 8.914062 6.6875 9.046875 7.023438 L 8.570312 7.300781 L 10.09375 7.296875 L 10.804688 5.964844 L 10.425781 6.214844 L 10.183594 5.761719 C 10.023438 5.507812 9.875 5.320312 9.574219 5.292969 Z M 7.140625 5.410156 L 6.40625 6.496094 L 7.703125 7.359375 L 8.402344 6.050781 C 8.207031 5.769531 7.925781 5.355469 7.476562 5.34375 L 7.460938 5.34375 C 7.351562 5.347656 7.242188 5.367188 7.140625 5.410156 Z M 9.738281 8.03125 L 10.34375 9.335938 L 10.867188 9.339844 C 11.164062 9.339844 11.636719 8.917969 11.640625 8.597656 L 11.640625 8.574219 L 11.046875 7.195312 Z M 5.292969 7.59375 L 5.746094 7.839844 L 5.59375 8.160156 C 5.101562 9.207031 5.722656 9.714844 6.457031 10.730469 C 6.359375 10.480469 6.355469 10.199219 6.453125 9.945312 L 7.105469 8.558594 L 7.515625 8.769531 L 6.707031 7.519531 Z M 8.789062 10.335938 L 9.484375 11.640625 L 9.488281 11.101562 L 9.828125 11.101562 C 10.933594 11.101562 11.085938 10.289062 11.617188 9.140625 C 11.453125 9.34375 11.214844 9.46875 10.957031 9.492188 L 9.488281 9.496094 L 9.484375 9.015625 Z M 6.867188 9.496094 L 6.628906 9.984375 C 6.488281 10.269531 6.648438 10.933594 6.929688 11.058594 L 8.375 11.058594 L 8.382812 9.445312 Z M 6.867188 9.496094 "/>
</svg>

<svg width="64" height="64" version="1.1" viewBox="0 0 16.933 16.933" xmlns="http://www.w3.org/2000/svg">
 <defs>
  <linearGradient id="a" x1="49.571" x2="51.714" y1="52.714" y2="54.857" gradientTransform="matrix(2.3333,0,0,2.3333,-68.667,-72.001)" gradientUnits="userSpaceOnUse">
   <stop offset="0"/>
   <stop stop-opacity="0" offset="1"/>
  </linearGradient>
 </defs>
 <g transform="scale(.26458)">
  <rect x="8" y="4" width="48" height="56" ry="5" fill="#f4f4f4" style="paint-order:stroke fill markers"/>
  <path d="m56 46-14 14h9c2.77 0 5-2.23 5-5z" fill="url(#a)" fill-rule="evenodd" opacity=".1" stroke-width="8.8191" style="paint-order:stroke fill markers"/>
 </g>
 <path d="m9.5725 5.2915-1.692 4e-3c0.184 0.116 0.428 0.377 0.63 0.676 0.224 0.333 0.403 0.717 0.538 1.052l-0.478 0.276 1.523-3e-3 0.711-1.332-0.379 0.252-0.24-0.454c-0.161-0.256-0.309-0.442-0.613-0.47zm-2.43 0.118-0.738 1.086 1.3 0.865 0.697-1.308c-0.193-0.283-0.476-0.697-0.924-0.707h-0.016a0.86 0.86 0 0 0-0.319 0.064zm2.596 2.62 0.606 1.305 0.521 4e-3c0.297 3e-3 0.77-0.42 0.776-0.74v-0.023l-0.593-1.382zm-4.447-0.434 0.453 0.246-0.152 0.32c-0.492 1.044 0.13 1.553 0.866 2.569a1.074 1.074 0 0 1-6e-3 -0.784l0.653-1.389 0.41 0.212-0.81-1.251zm3.496 2.741 0.697 1.305 4e-3 -0.538h0.341c1.103 0 1.256-0.814 1.787-1.964a0.945 0.945 0 0 1-0.66 0.353l-1.468 4e-3 -4e-3 -0.481zm-1.922-0.84-0.237 0.487c-0.14 0.287 0.02 0.951 0.3 1.077h1.446l0.01-1.615z" fill="#8a92a2" fill-rule="evenodd"/>
</svg>
